X:1
T:Waltz of the Flowers
T:Waltz of the Flowers
T:Pyotr Ilyich Tchaikovsky
C:Pyotr Ilyich Tchaikovsky
%%score 1 2 3
L:1/8
Q:1/4=160
M:3/4
K:Eb
V:1 treble nm="Flauta Transversal" snm="Fl."
V:2 treble nm="Violino" snm="Vln."
V:3 treble transpose=-2 nm="Clarinete em B♭" snm="Cl. em B♭"
V:1
 z2 z4 | z6 |!p! !tenuto!B2 !tenuto!e2 !tenuto!g2 | !>!a4- a>g | g6- | g6 | %6
 !tenuto!B2 !tenuto!e2 !tenuto!g2 | !>!a2 !>!g3 f | !>!b4 !tenuto!e2 | z2 (Bc de) | (=eg eg f) z | %11
 z2"_cresc." (_de =ef) | (gb gb a) z | z2 (fg ab) |!<(! (=bd' c'b c'd')!<)! |!f! (f'e' d'e' c'a) | %16
!>(! (!>!g4 f2-!>)! | f(_f) ed c_c) |!p! z2 .B2 .B2 | z2 ._c2 .c2 | z!<(! (B cd eg)!<)! | %21
!>(! (c'b ge cB)!>)! | z2 .B2 .B2 | z2 ._c2 .c2 | z!<(! (d ef gb)!<)! |!>(! (e'b ge BG)!>)! | %26
 G z z2 z!mp! (b | =a^f d) z z2 | z2 z2 z"_cresc." (g | ^fc) (=A4 | B) z!mf! d4 | d4 (c2 | %32
!<(! c2) d2 _c2!<)! |!f! x2 z2 z2 |:!f! z2 .G2 .G2 | z2 .G2 .G2 | z2 .F2 .F2 | %37
 (3d'e'd' .^c' z .d' z | z2 .A2 .A2 | z2 .A2 .A2 | z2 .G2 .G2 | (3e'f'e' .d' z .e' z | z2 .G2 .G2 | %43
 z2 .G2 .G2 | z2 .F2 .F2 | (3d'e'd' .^c' z .d' z |1"_cresc." z2 .A2 .A2 | z2 .A2 .A2 | z2 .A2 .A2 | %49
 A z z2 z2 :|2"_cresc." (c'4 b2) | (c'4 b2) | d' z!ff! (f=g a=a |!>(! (b)a fe d)c!>)! || %54
!p! !tenuto!B2 !tenuto!e2 !tenuto!g2 | !>!a4- a>g | g6- | g6 | !tenuto!B2 !tenuto!e2 !tenuto!g2 | %59
 !>!a2 !>!g3 f | !>!b4 !tenuto!e2 | z2 (Bc de) | (=eg eg f) z | z2"_cresc." (_de =ef) | %64
 (gb gb a) z | z2 (fg ab) |!<(! (=bd' c'b c'd')!<)! |!f! (f'e' d'e' c'a) |!>(! (!>!g4 f2-)!>)! | %69
 f(_f ed c_c) |!p! z2 .B2 .B2 | z2 ._c2 .c2 | z!<(! (B cd eg)!<)! |!>(! (c'b ge cB)!>)! | %74
 z2 .B2 .B2 | z2 ._c2 .c2 | z!<(! (d ef gb)!<)! |!>(! (e'b ge BG)!>)! | G z z2 z!mp! (b | %79
 =a^f d) z z2 | z2 z2 z"_cresc." (g | ^fc) (=A4 | B) z!mf! d4 | d4 c2 |!<(! (c2 d2 _c2)!<)! | %85
!f! B z z2 z2 |:!f! z2 .G2 .G2 | z2 .G2 .G2 | z2 .F2 .F2 | (3d'e'd' .^c' z .d' z | z2 .A2 .A2 | %91
 z2 .A2 .A2 | z2 .G2 .G2 | (3e'f'e' .d' z .e' z | z2 .G2 .G2 | z2 .G2 .G2 | z2 .F2 .F2 | %97
 (3d'e'd' .^c' z .d' z |1"_cresc." z2 .A2 .A2 | z2 .A2 .A2 | z2 .A2 .A2 | A z z2 z2 :|2 %102
"_cresc." (c'4 b2) | (c'4 b2) | d' z!ff! b=b c'd' || e' z!mf! (e'2 =e'2) |: (f'4 b2) | %107
 z2 (c'2 _d'2) | (e'4 a2) |1 z2 (b2 c'2) | (_d'4 f2) | (c'4 a2) |"_cresc." c'4 b2- | %113
 b2 (e'2 =e'2) :|2!mf! z2 (c'2 _g2) ||"_cresc." g2 (c'2 e'2) | (e'4 d'2) | c' z!ff! (eg =a=b | %118
 c'2) (e'2 =e'2) |:!mf! (f'4 b2) | z2 (c'2 _d'2) | (e'4 a2) |1 z2 (b2 c'2) | (_d'4 f2) | (c'4 a2) | %125
"_cresc." c'4 b2- | b2 (e'2 =e'2) :|!mf! z2 (c'2 _g2) || g2 (c'2 e'2) |"_dim." (e'4 d'2) |: %130
 z2!mp! .E2 .E2 | z2 .E2 .E2 | z2 .E2 .E2 | z2 .E2 .E2 | z2 .D2 .D2 | z2 .D2 .D2 | z2 .E2 .E2 | %137
 z2 .E2 .E2 |1 z2 .E2 .E2 | z2 .E2 .E2 | z2 .F2 .F2 | z2 .F2 .F2 | z2 .F2 .F2 | z2 .E2 .E2 | %144
 z2 .E2 .G2 |!<(! E4 z2!<)! :|!mf! z2 .E2 .E2 | z2 .E2 .E2 | z2 .F2 .F2 | z2 .F2 .F2 | z2 .G2 .G2 | %151
 z2 .G2 .G2 | z2 .G2 .G2 | z2 (e'2 =e'2) |:!mf! (f'4 b2) | z2 (c'2 _d'2) | (e'4 a2) |1 %157
 z2 (b2 c'2) | (_d'4 f2) | (c'4 a2) |"_cresc." c'4 b2- | b2 (e'2 =e'2) :|!mf! z2 a2 z b | %163
[Q:1/4=200]"^- - - - - - acell.- - - - - - - - -" c'4 f2 | c'4 f2 | c'2 f2 c'2 | %166
[Q:1/4=170]"^- - - - - - dim. - - - - - - - -" f2 c'2 f2 | c2 F2 c2 | F2 c2 F2 | c4 z2 || %170
[Q:1/4=114]"^Ritardando" z2 D2 z2 | E2 z2 =E2 | z2 F2 z2 | G6 | %174
!p![Q:1/4=144]"^Poco a poco\n\n" !tenuto!B2!<(! !tenuto!e2 !tenuto!g2!<)! | %175
"^\n"[Q:1/4=160]"^A tempo\n" !>!a4- a>g | g6- | g6 | !tenuto!B2 !tenuto!e2 !tenuto!g2 | %179
 !>!a2 !>!g3 f | !>!b4 !tenuto!e2 | z2 (Bc de) | (=eg eg f) z | z2"_cresc." (_de =ef) | %184
 (gb gb a) z | z2 (fg ab) |!<(! (=bd' c'b c'd')!<)! |!f! (f'e' d'e' c'a) |!>(! (!>!g4 f2-!>)! | %189
 f(_f) ed c_c) |!p! z2 .B2 .B2 | z2 ._c2 .c2 | z!<(! (B cd eg)!<)! |!>(! (c'b ge cB)!>)! | %194
 z2 .B2 .B2 | z2 ._c2 .c2 | z!<(! (d ef gb)!<)! |!>(! (e'b ge BG)!>)! | G z z2 z!mp! (b | %199
 =a^f d) z z2 | z2 z2 z"_cresc." (g | ^fc) (=A4 | B) z!mf! d4 | d4 (c2 |!<(! c2) d2 _c2!<)! | %205
!f! B2 z2 z2 |:!f! z2 .G2 .G2 | z2 .G2 .G2 | z2 .F2 .F2 | (3d'e'd' .^c' z .d' z | z2 .A2 .A2 | %211
 z2 .A2 .A2 | z2 .G2 .G2 | (3e'f'e' .d' z .e' z | z2 .G2 .G2 | z2 .G2 .G2 | z2 .F2 .F2 | %217
 (3d'e'd' .^c' z .d' z |1"_cresc." z2 .A2 .A2 | z2 .A2 .A2 | z2 .A2 .A2 | A z z2 z2 :| %222
!mf! (c'4 b2) | (c'4 b2) | !>!d' z!<(! (fg a=a) | (b=a b=b c'd')!<)! |!f! !>!e'6 | %227
 !tenuto!d'4 z z/ !>!e'/ | (e'd' c'b c'b) | (ge BG Be) | !>!g6 | !tenuto!a2 !tenuto!b2 !tenuto!a2 | %232
 (gf eB GB) | ._d z!mp![Q:1/4=200]"^Accelerando""_cresc." (GA =AB) | (=Bd _Bd =B=a) | %235
[Q:1/4=230]"^\n" !>!g2 (B=B cd) |[Q:1/4=240] (ef ef eB) |[Q:1/4=250] dc (GA =AB) | %238
[Q:1/4=260][Q:1/4=240] (=Bd _Bd =Ba) | !>!g2 (B=B cd) | (=ef ef d=B) | (d^c GA =AB) | =Bd _Bd =Be | %243
[Q:1/4=220]"^Ritardando" ce =Be cf |[Q:1/4=210] ef df e^f |[Q:1/4=200] f^f ef ea | %246
[Q:1/4=190] ga _ga =gb |[Q:1/4=175] ac' =a=c' bd' |[Q:1/4=155] ce =Bd ce |[Q:1/4=140] fe gf ag || %250
[Q:1/4=160]"^A tempo"!p! !tenuto!_g2 !tenuto!G2 !tenuto!G2 | !>!A4 z z/ !tenuto!G/ | (!>!G6 | G6) | %254
!>(! !tenuto!G2 !tenuto!G2 !tenuto!G2!>)! | !>!A4 z z/!mf! b/ |!<(! (ba gf ga)!<)! | %257
[Q:1/4=180]"^Accelerando"!>(! (b=a b=b c'd')!>)! |!f![Q:1/4=210] (!>!e'4 b2) | (!>!e'4 =b2) | %260
 (d'c' =bc' af) | (3c'd'c' =b z c' z | (d'4 a2) | (d'4 b2) | (c'b =ab ge) | (3bc'b =a z b z | %266
 =b4 _g2 | =a4 f2 | b2 f2 (3gag | e2 (3aba f2 | (3=aba _g2 (3b=b_b | g2 (3_c'd'c' a2 | %272
 (3c'd'c' b2 (3d'e'd' | b2 z4 |!mp! (d'4 a2) | (d'4 b2) | (c'b =ab ge) | (3bc'b =a z b z | %278
 =b4 _g2 | =a4 f2 | b2 f2 (3gag | e2 (3aba f2 | (3=aba _g2 (3b=b_b | g2 (3_c'd'c' a2 | %284
 (3c'd'c' b2 (3d'e'd' | b2 e'2 (3d'e'd' | b2 (c'2 c'2) | d'2 e'2 (3d'e'd' | b2 (c'2 c'2) | %289
!>(! d'2 e'2 (3d'e'd' | b2 e'2 (3d'e'd' | b2 e'2 (3d'e'd'!>)! | %292
[Q:1/4=140]"^Rallentando - - - - - - - - - - - - - - - - - -"!pp! b2 e'2 (3d'e'd' | !>!b6 | %294
!ppp! !tenuto!e2 !tenuto!g2 !tenuto!b2 | e'6 |] %296
V:2
!pp! z2 .B2 .B2 | z2 .B2 .B2 | z2 .B2 .B2 | z2 ._c2 .c2 | z2 .B2 .B2 | z2 .B2 .B2 | z2 .B2 .B2 | %7
 z2 ._c2 .c2 | z2 .B2 .B2 | z2 .B2 .B2 | z2 .B2 .B2 | z2"_cresc." .=B2 .B2 | z2 .c2 .c2 | %13
 z2 .c2 .c2 | z2!<(! .c2 .c2!<)! | z2!mf! .F2 .F2 | z2!>(! .E2 .E2!>)! |!p! D z z4 | %18
!mp! !tenuto!B2 !tenuto!e2 !tenuto!g2 | !>!a4- a>g | g6- | g6 | !tenuto!B2 !tenuto!e2 !tenuto!g2 | %23
 !tenuto!a2 !>!g3 f | !>!b4 !tenuto!e2 | z2!p! .B2 .B2 | z2 .G2 .G2 |"_cresc." z2 .c2 .c2 | %28
 z2 .B2 .B2 | z2 .^F2 .F2 |!mf! z2 G4 | G4 (G2 |!<(! G2) G2 ^F2!<)! |!f! (GB cd ef) |: (g4 d2) | %35
 (f4 c2) | (e4 A2) | .b z4 z | (a4 e2) | (g4 d2) | (f4 B2) | .g z z4 | (g4 d2) | (f4 c2) | %44
 (e4 A2) | .b z4 z |1"_cresc." (a4 e2) | (a4 =e2) | (a4 f2) | b!f!(B cd ef) :|2"_cresc." (a4 c2) | %51
 (a4 _d2) | a z z2!ff! a z | g z z2 z2 ||!pp! z2 .B2 .B2 | z2 ._c2 .c2 | z2 .B2 .B2 | z2 .B2 .B2 | %58
 z2 .B2 .B2 | z2 ._c2 .c2 | z2 .B2 .B2 | z2 .B2 .B2 | z2 .B2 .B2 | z2"_cresc." .=B2 .B2 | %64
 z2 .c2 .c2 | z2 .c2 .c2 | z2!<(! .c2 .c2!<)! | z2!mf! .F2 .F2 | z2!>(! .E2 .E2!>)! |!p! D z z4 | %70
!mp! !tenuto!B2 !tenuto!e2 !tenuto!g2 | !>!a4- a>g | (g6 | g6) | !tenuto!B2 !tenuto!e2 !tenuto!g2 | %75
 !tenuto!a2 !>!g3 f | !>!b4 !tenuto!e2 | z2!p! .B2 .B2 | z2 .G2 .G2 |"_cresc." z2 .c2 .c2 | %80
 z2 .B2 .B2 | z2 .^F2 .F2 |!mf! z2 G4 | G4 (G2 |!<(! G2) G2 ^F2!<)! |!f! (GB cd ef) |: (g4 d2) | %87
 (f4 c2) | (e4 A2) | .b z4 z | (a4 e2) | (g4 d2) | (f4 B2) | .g z z4 | (g4 d2) | (f4 c2) | %96
 (e4 A2) | .b z4 z |1"_cresc." (a4 e2) | (a4 =e2) | (a4 f2) | b!f!(B cd ef) :|2"_cresc." (a4 c2) | %103
 (a4 _d2) | a z z2!ff! a z || g z z2 z2 |:!pp! (fe _dc BA | G) z z2 z2 | (e_d cB AG |1 F) z z2 z2 | %110
 (Bc _de fg) | z2 z4 |"_cresc." (cB AG AB) | (cd ef ^fg) :|2!p! z2 .A2 ._G2 || %115
"_cresc." z2 .E2 .E2 | z2 .G2 .G2 | z z z2!ff! z z | z z z2 z2 |:!pp! (fe _dc BA | G) z z2 z2 | %121
 (e_d cB AG |1 F) z z2 z2 | (Bc _de fg) | z2 z4 |"_cresc." (cB AG AB) | (cd ef ^fg) :| %127
!p! z2 .A2 ._G2 || z2 .E2 .E2 |"_dim." z2 .G2 .G2 |: z2!mp! .C2 .C2 | z2 .C2 .C2 | z2 .C2 .C2 | %133
 z2 .C2 .C2 | z2 .=B,2 .B,2 | z2 .=B,2 .B,2 | z2 .C2 .C2 | z2 .C2 .C2 |1 z2 .C2 .C2 | z2 .C2 .C2 | %140
 z2 .C2 .C2 | z2 .C2 .C2 | z2 ._C2 .C2 | z2 ._C2 .C2 | z2 .C2 .E2 |!<(! G,4 z2!<)! :| %146
!mf! z2 .C2 .C2 | z2 .C2 .C2 | z2 .D2 .D2 | z2 .D2 .D2 | z2 .D2 .D2 | z2 ._D2 .D2 | z2 .C2 .C2 | %153
 z6 |:!pp! fe _dc BA | G z z2 z2 | e_d cB AG |1 F z z2 z2 | (Bc _de fg) | z2 z4 | %160
"_cresc." (cB AG AB) | (cd ef ^fg) :| z2!mp! E2 E2 | z2 D2 D2 | z2 E2 E2 | B,2 z2 C2 | z2 D2 z2 | %167
 B,2 z2 C2 | z2 A,2 z2 | E4 z2 || B,2 z2 B,2 | z2 B,2 z2 | B,2 z2 B,2 | z6 | z2!<(! .B2 .B2!<)! | %175
 z2 ._c2 .c2 | z2 .B2 .B2 | z2 .B2 .B2 | z2 .B2 .B2 | z2 ._c2 .c2 | z2 .B2 .B2 | z2 .B2 .B2 | %182
 z2 .B2 .B2 | z2"_cresc." .=B2 .B2 | z2 .c2 .c2 | z2 .c2 .c2 | z2!<(! .c2 .c2!<)! | %187
 z2!mf! .F2 .F2 | z2!>(! .E2 .E2!>)! |!p! D z z4 |!mp! !tenuto!B2 !tenuto!e2 !tenuto!g2 | %191
 !>!a4- a>g | g6- | g6 | !tenuto!B2 !tenuto!e2 !tenuto!g2 | !tenuto!a2 !>!g3 f | !>!b4 !tenuto!e2 | %197
 z2!p! .B2 .B2 | z2 .G2 .G2 |"_cresc." z2 .c2 .c2 | z2 .B2 .B2 | z2 .^F2 .F2 |!mf! z2 G4 | G4 (G2 | %204
!<(! G2) G2 ^F2!<)! |!f! (GB cd ef) |: (g4 d2) | (f4 c2) | (e4 A2) | .b z4 z | (a4 e2) | (g4 d2) | %212
 (f4 B2) | .g z z4 | (g4 d2) | (f4 c2) | (e4 A2) | .b z4 z |1"_cresc." (a4 e2) | (a4 =e2) | %220
 (a4 f2) | b!f!(B cd ef) :| z2!p! .E2 .E2 | z2 .=E2 .E2 | .D z z2 E z | .D z z4 | %226
 !tenuto!G2 !tenuto!B2 !tenuto!e2 | !>!e2 z4 | e2 G2 G2 | !>!G6 | %230
 !tenuto!G2 !tenuto!B2 !tenuto!e2 | (!>!e4 e>)f | !>!f4 B2 | B2 z4 | z2!p! .e2 .e2 | z2 .=e2 .e2 | %236
 z2 .G2 .G2 | !>!F2 z4 | z2 .e2 .e2 | z2 .=e2 .e2 | z2 .e2 .e2 | z2 .d2 .d2 | .=B2 .B2 z2 | %243
 .=E2 .E2 z2 | .E2 .E2 z2 | .D2 .D2 z2 | !>!D2 z2 !>!C2 | z2 !>!B,2 z2 | !tenuto!E2 z2 E2 | %249
 E2 D2 z2 ||!mf! !tenuto!_G2 !tenuto!B2 !tenuto!e2 | !>!f4 z z/ !tenuto!e/ | (!>!e6 | e6) | %254
!p! !tenuto!E2 !tenuto!B2 !tenuto!e2 | !>!f4 z z/ B/ |!<(! B z d2 d2!<)! |!>(! d6!>)! | %258
 z2!mf! Be .B2 | z2 =Bf .B2 | !tenuto!A2 !>!f4 | .c2 .c2 .c2 | .A2 .A2 .A2 | .B2 Bd .B2 | %264
 G2 !>!B4 | .B2 .B2 .B2 | !tenuto!G2 !>!G4 | !tenuto!E2 !>!E4 | .B2 z2 .B2 | z2 .A2 z2 | %270
 .=A2 z2 .B2 | z2 .A2 z2 | .F2 z2 .G2 | z6 |!p! .A2 .A2 .A2 | B2 Bd .B2 | !tenuto!G2 !>!B4 | %277
 .B2 .B2 .B2 | !tenuto!G2 !>!G4 | !tenuto!E2 !>!E4 | .B2 z2 .B2 | z2 .A2 z2 | .=A2 z2 .B2 | %283
 z2 .A2 z2 | .F2 z2 .G2 | z2 .e2 (b2 | b2) .a4 | !tenuto!.f2 !tenuto!.e2 (b2 | b2) .a4 | %289
!>(! .f2 .e2 .g2 | .a2 .e2 .g2 | .a2 .e2 .g2!>)! |!pp! .a2 .e2 .g2 | !>!e6 | %294
!ppp! !tenuto!e2 !tenuto!B2 !tenuto!G2 | B6 |] %296
V:3
!pp! .F2 .=A2 .A2 | .F2 .=A2 .A2 | .F2 .=A2 .A2 | .F2 .G2 .G2 | .F2 .=A2 .A2 | .F2 .=A2 .A2 | %6
 .F2 .=A2 .A2 | .F2 .B2 .B2 | .F2 .=A2 .A2 | F6 | =E6 |"_cresc." E6 | D6 | B6 |!<(! G6!<)! | %15
!mf! d6 |!>(! (_d6!>)! |!p! c) z z4 | !tenuto!=A2 !tenuto!A2 !tenuto!c2 | (!>!=e4 e>)f | (f6 | %21
 f6) | !tenuto!=A2 !tenuto!A2 !tenuto!c2 | !tenuto!=e2 !tenuto!e3 e | !>!=a4 !tenuto!c2 | %25
 z2!mp! (FG =A=B) | (cd =Bd c) z |"_cresc." z2 (B=B cd) | (=ef ^df e) z | z2!mf! (^d=e f^g) | %30
!<(! (=a=b c'^g ba)!<)! | (c'^g =b=a c'a) |!ff! (c'=a c'a c'^g) | =a(c =Bc d=e) |: (f4 c2) | %35
 (=e4 F2) | (d4 B2) | (3=efe .^d z .e z | (f4 d2) | (=e4 =E2) | (=e4 F2) | (3fgf =e z f z | %42
 (f4 c2) | (=e4 F2) | (d4 B2) | (3=efe .^d z .e z |1 (f4 B2) | (^f4 B2) | (g4 c2) | %49
 f!f!(c =Bc d=e) :|2"_cresc." z2 .f2 .f2 | z2 .^f2 .f2 | g z!ff! (c^c d=e | f) z z2 z2 || %54
!pp! .F2 .=A2 .A2 | .F2 .=A2 .A2 | .F2 .=A2 .A2 | .F2 .=A2 .A2 | .F2 .=A2 .A2 | .F2 .B2 .B2 | %60
 .F2 .=A2 .A2 | F6 | =E6 |"_cresc." E6 | D6 | B6 |!<(! G6!<)! |!mf! d6 |!>(! (_d6!>)! | %69
!p! c) z z4 | !tenuto!=A2 !tenuto!A2 !tenuto!c2 | (!>!=e4 e>)f | f6- | f6 | %74
 !tenuto!=A2 !tenuto!A2 !tenuto!c2 | !tenuto!=e2 !tenuto!e3 e | !>!=a4 !tenuto!c2 | %77
 z2!mp! (FG =A=B) | (cd =Bd c) z |"_cresc." z2 (B=B cd) | (=ef ^df e) z | z2!mf! (^d=e f^g) | %82
!<(! (=a=b c'^g ba) | (c'^g =b=a c'a)!<)! |!ff! (c'=a c'a c'^g) | =a(c =Bc d=e) |: (f4 c2) | %87
 (=e4 F2) | (d4 B2) | (3=efe .^d z .e z | (f4 d2) | (=e4 =E2) | (=e4 F2) | (3fgf =e z f z | %94
 (f4 c2) | (=e4 F2) | (d4 B2) | (3=efe .^d z .e z |1 (f4 B2) | (^f4 B2) | (g4 c2) | %101
 f!f!(c =Bc d=e) :|2"_cresc." z2 .f2 .f2 | z2 .^f2 .f2 | g z!ff! c^c d=e || f z z2 z2 |: z6 | %107
!pp! (cB =AG FE | D) z z2 z2 |1 (B=A GA GF | E) z z2 z2 | (dc B=A BA) |"_cresc." (G=A G^F GA) | %113
 (B=A Bc de) :|2!p! .F2 .c2 .c2 ||"_cresc." .F2 .c2 .c2 | .F2 .c2 .c2 | d z!ff! (F=A =B^c | %118
 d) z z2 z2 |: z6 |!pp! (cB =AG FE | D) z z2 z2 |1 (B=A GA GF | E) z z2 z2 | (dc B=A BA) | %125
"_cresc." (G=A G^F GA) | (B=A Bc de) :|!p! .F2 .c2 .c2 || .F2 .c2 .c2 |"_dim." .F2 .c2 .c2 |: %130
!f! =A6 | B6 | =A4 z (3z/ F/G/ | G2 ^F2 G2 | B2 B2 =A2 | (=A2 A2) G2 | (G2 G2) F (3z/ =E/F/ | %137
 F2 =E2 F2 |1 (=A2 A2) D (3:2:2z/4 D/=E/ | D2 ^C2 D2 | F2 B,2 B,2 | B,2 D2 F2 | (F2 F2) _D2 | %143
 G,2 _D2 F2 | =E4 D2 |!<(! z2 (3:2:6z C^C D=EF!<)! :| d4 D2 | D2 F2 =A2 | d4 D2 | D2 F2 =A2 | %150
 d4 z =A | B2 =A2 z =E | G4 (F2 | F) z z4 |: z6 |!pp! cB =AG FE | D z z2 z2 |1 B=A GA GF | %158
 E z z2 z2 | (dc B=A BA) |"_cresc." (G=A G^F GA) | (B=A Bc de) :|!mp! G,2 C2 C2 | F,2 C2 C2 | %164
 =E,2 C2 C2 | F,2 z2 C2 | z2 C2 z2 | D2 z2 C2 | z2 B,2 z2 | B,4 z2 || B,2 z2 =A,2 | z2 A,2 z2 | %172
 G,2 z2 F,2 | z6 | .F2!<(! .=A2 .A2!<)! | .F2 .G2 .G2 | .F2 .=A2 .A2 | .F2 .=A2 .A2 | %178
 .F2 .=A2 .A2 | .F2 .B2 .B2 | .F2 .=A2 .A2 | F6 | =E6 |"_cresc." E6 | D6 | B6 |!<(! G6!<)! | %187
!mf! d6 |!>(! (_d6!>)! |!p! c) z z4 | !tenuto!=A2 !tenuto!A2 !tenuto!c2 | (!>!=e4 e>)f | (f6 | %193
 f6) | !tenuto!=A2 !tenuto!A2 !tenuto!c2 | !tenuto!=e2 !tenuto!e3 e | !>!=a4 !tenuto!c2 | %197
 z2!mp! (FG =A=B) | (cd =Bd c) z |"_cresc." z2 (B=B cd) | (=ef ^df e) z | z2!mf! (^d=e f^g) | %202
!<(! (=a=b c'^g ba) | (c'^g =b=a c'a)!<)! |!ff! (c'=a c'a c'^g) | =a(c =Bc d=e) |: (f4 c2) | %207
 (=e4 F2) | (d4 B2) | (3=efe .^d z .e z | (f4 d2) | (=e4 =E2) | (=e4 F2) | (3fgf =e z f z | %214
 (f4 c2) | (=e4 F2) | (d4 B2) | (3=efe .^d z .e z |1 (f4 B2) | (^f4 B2) | (g4 c2) | %221
 f!f!(c =Bc d=e) :|!mp! .=A,2 .C2 .C2 | .=A,2 .C2 .C2 | .G, z z2 G, z | .C z z4 | %226
 !tenuto!F2 !tenuto!=A2 !tenuto!c2 | !>!d2 .F2 .F2 | C2 F2 F2 | !>!F6 | %230
 !tenuto!F2 !tenuto!=A2 !tenuto!c2 | (!>!d4 d>)B | !>!B4 F2 | =A2 z4 |!p! .F2 .^d2 .d2 | %235
 .=E2 .d2 .d2 | .D2 .F2 .F2 | !>!G,2 z4 | .F2 .^d2 .d2 | .=E2 .d2 .d2 | .D2 .=A2 .A2 | %241
 .G,2 .=A2 .A2 | .=A2 .A2 z2 | .=A2 .A2 z2 | .=A2 .A2 z2 | .B2 .B2 z2 | !>!C2 z2 !>!B,2 | %247
 z2 !>!=A,2 z2 | !tenuto!=A,2 z2 G,2 | F,2 =E,2 z2 ||!p! .F,2 .=A2 .A2 | .=E2 .G2 .G2 | %252
 .F2 .=A2 .A2 |!<(! =A,2 =E=A!<)!!>(! c=e!>)! |!p! .f2 .=A2 .A2 | .=e2 .G2 .G2 | %256
!<(! =A2 c2 c2!<)! |!>(! G6!>)! |!mf! .=A,2 .=A2 .A2 | .=A,2 .=A2 .A2 | !tenuto!B,2 !>!B4 | %261
 .G2 .G2 .G2 | .G2 .G2 .G2 | .=A2 .A2 .A2 | =A,2 !>!=A4 | .=A2 .A2 .A2 | !tenuto!F2 !>!F4 | %267
 !tenuto!D2 !>!D4 | .G2 z2 .=A2 | z2 .F2 z2 | .F2 z2 .F2 | z2 .^C2 z2 | .=E2 z2 .F2 | z6 | %274
!p! .G2 .G2 .G2 | .=A2 .A2 .A2 | !tenuto!=A,2 !>!=A4 | .=A2 .A2 .A2 | !tenuto!F2 !>!F4 | %279
 !tenuto!D2 !>!D4 | .G2 z2 .=A2 | z2 .F2 z2 | .F2 z2 .F2 | z2 .^C2 z2 | .=E2 z2 .F2 | %285
 z2 .=A2 (=a2 | =a2) .d4 | !tenuto!.B2 !tenuto!.c2 (=a2 | =a2) .d4 |!>(! .c2 .=A2 .F2 | %290
 .F2 .=A2 .C2 | .F2 .C2 .=A,2!>)! |!pp! .F,2 .=A,2 .C2 | !>!=A6 | %294
!ppp! !tenuto!F2 !tenuto!c2 !tenuto!f2 | =a6 |] %296

